X:85
T:Humors of Derrycros(s)ane, The    
B:CRE1.064 (Plearaca Dhoire an Chreasain)
F:file ID: cre.1/085hu_derryc
S:Willie Clancy
N:This is also known as "Humors of Derrykissane".
M:9/8
Q:160
R:slip jig
K:G
B3 BcA B2G|BAG BdB ABc|BAG BdB c2e|dBG GDG G2d|
B3 BcA B2G|BAG BdB ABc|BAG BdB c2e|dBG GAG G2||
d|g3 edc Bcd|ecA ABA ABA|g3 edc Bcd|gdB G3 G3|
g3 edc Bcd|ecA ABA ABA|def gfe def|gbg agf gdc||

%%%

